!!!OTL: No_16_Song_of_Y'ak,_the_Medicine_Man_(b).krn
!!!REG: British Columbia
!!!SOCIAL_FUNCTION: songs with treatment of the sick
**kern	**kern
*staff2	*staff1
=1-	=1-
=	=
*clefF4	*clefF4
*k[b-e-]	*k[b-e-]
*M2/4	*M2/4
8GG/L	4d\
8GG/J	.
8GG/L	4d\
8GG/J	.
=2	=2
8GG/L	12d\L
.	12c\
8GG/J	.
.	12B-\J
4r	8d\
.	16r
.	16d\
=3	=3
2r	8.c\L
.	16c\Jk
.	8c\
.	16r
.	16c\
=4	=4
2r	4B-\
.	4B-\
=5	=5
2r	4B-\
.	8c\
.	16r
.	16c\
=6	=6
2r	8.B-\L
.	16B-\Jk
.	4G\
=7	=7
2r	4G\
.	4G\
=8	=8
2r	4G\
.	8B-\
.	16r
.	16B-\
=9	=9
2r	8.G\L
.	16G\Jk
.	8F\
.	8r
=10	=10
2r	4c\
.	16c\LK
.	8.B-\J
=11	=11
2r	4B-\
.	4B-\
=12	=12
2r	4B-\
.	8B-\
.	8r
=13	=13
2r	4G\
.	8.B-\L
.	16c\Jk
=14	=14
2r	4B-\
.	4B-\
=15	=15
2r	4B-\
.	8c\
.	16r
.	16c\
=16	=16
2r	8.B-\L
.	16B-\Jk
.	8B-\
.	8r
=17	=17
2r	4G\
.	4G\
=18	=18
2r	4G\
.	8G\
.	16r
.	16G\
=19	=19
2r	8.G\L
.	16G\Jk
.	8G\
.	8r
=20	=20
2r	4c\
.	12c\L
.	12B-\
.	12B-\J
=21	=21
2r	4B-\
.	4B-\
=22	=22
2r	12c\L
.	12B-\
.	12B-\J
.	8B-\
.	8r
=23	=23
2r	4G\
.	8.B-\L
.	16c\Jk
=24	=24
2r	4B-\
.	4B-\
=25	=25
2r	4B-\
.	8c\
.	16r
.	16c\
=26	=26
2r	8.B-\L
.	16B-\Jk
.	8B-\
.	8r
=27	=27
2r	4G\
.	4G\
=28	=28
2r	4G\
.	8G\
.	16r
.	16G\
=29	=29
2r	8.G\L
.	16G\Jk
.	8G\
.	8r
=30	=30
2r	4B-\
.	8B-\
.	8r
==:|!	==:|!
*-	*-
